share/icons/Flat-Remix-Blue-Dark/mimetypes/scalable/application-info.svg

<svg xmlns="http://www.w3.org/2000/svg" xmlns:xlink="http://www.w3.org/1999/xlink" width="36pt" height="36pt" version="1.1" viewBox="0 0 36 36"> <defs> <clipPath id="clip1"> <path d="M 20 2 L 31 2 L 31 13 L 20 13 Z M 20 2"/> </clipPath> <clipPath id="clip2"> <path d="M 20.515625 2.625 L 30.328125 12.4375 L 22.023438 12.4375 C 21.292969 12.4375 20.515625 11.660156 20.515625 10.929688 Z M 20.515625 2.625"/> </clipPath> <image id="image6" width="36" height="36" xlink:href="data:image/png;base64,iVBORw0KGgoAAAANSUhEUgAAACQAAAAkCAYAAADhAJiYAAAABmJLR0QA/wD/AP+gvaeTAAAAmklEQVRYhe3T0QqCQBBG4aOtYEoUvf9Lildltl00C4tkbBeTIP+BAUEYP1YW1Pcqh53B9kbgaVPcwQF0tAmGSrMZ6AKcDQXw+AUVHEAtcAUaewYYgYmC3+cBCkAPnDJQMcoDVNnebgEqQnmAclTz4d0I3P4JStc9AjXvk4qLWQV53LLeEOl05gw4A3dgcPiuUkoppZRSSqk99gLWvSJpuDnlsAAAAABJRU5ErkJggg=="/> </defs> <g> <path style="fill:rgb(29.019%,68.235%,90.196%)" d="M 7.347656 3.152344 C 6.675781 3.152344 6.042969 3.785156 6.042969 4.457031 L 6.042969 31.847656 C 6.042969 32.480469 6.714844 33.152344 7.347656 33.152344 L 28.21875 33.152344 C 28.851562 33.152344 29.523438 32.480469 29.523438 31.847656 L 29.523438 11.632812 L 21.042969 3.152344 Z M 7.347656 3.152344"/> <g clip-path="url(#clip1)"> <g clip-path="url(#clip2)"> <use xlink:href="#image6"/> </g> </g> <path style="fill:rgb(50.196%,77.647%,92.941%)" d="M 21.042969 3.152344 L 29.523438 11.632812 L 22.347656 11.632812 C 21.714844 11.632812 21.042969 10.960938 21.042969 10.328125 Z M 21.042969 3.152344"/> <path style="fill:rgb(100.000%,100.000%,100.000%)" d="M 14.085938 14.085938 C 13.363281 14.085938 12.78125 14.667969 12.78125 15.390625 L 12.78125 23.21875 C 12.78125 23.941406 13.363281 24.523438 14.085938 24.523438 L 21.914062 24.523438 C 22.636719 24.523438 23.21875 23.941406 23.21875 23.21875 L 23.21875 15.390625 C 23.21875 14.667969 22.636719 14.085938 21.914062 14.085938 Z M 17.347656 15.390625 L 19.304688 15.390625 L 19.304688 17.347656 L 17.347656 17.347656 Z M 16.695312 18 L 19.304688 18 L 19.304688 21.914062 L 19.957031 21.914062 L 19.957031 23.21875 L 16.695312 23.21875 L 16.695312 21.914062 L 17.347656 21.914062 L 17.347656 19.304688 L 16.695312 19.304688 Z M 16.695312 18"/> </g> </svg>

<svg width="36pt" height="36pt" version="1.1" viewBox="0 0 36 36" xmlns="http://www.w3.org/2000/svg"><defs><filter id="a" x="-.192" y="-.192" width="1.384" height="1.384" color-interpolation-filters="sRGB"><feGaussianBlur stdDeviation="0.67843748"/></filter></defs><path d="m7.3477 3.9022c-0.67188 0-1.3047 0.63281-1.3047 1.3047v27.391c0 0.63281 0.67188 1.3047 1.3047 1.3047h20.871c0.63281 0 1.3047-0.67188 1.3047-1.3047v-20.215l-8.4805-8.4805z" opacity=".3"/><path d="m7.3477 3.1523c-0.67188 0-1.3047 0.63281-1.3047 1.3047v27.391c0 0.63281 0.67188 1.3047 1.3047 1.3047h20.871c0.63281 0 1.3047-0.67188 1.3047-1.3047v-20.215l-8.4805-8.4805z" fill="#49ade5"/><path d="m20.668 3.5272 8.4805 8.4805h-7.1758c-0.63281 0-1.3047-0.67187-1.3047-1.3047z" filter="url(#a)" opacity=".2"/><path d="m21.043 3.1523 8.4805 8.4805h-7.1758c-0.63281 0-1.3047-0.67187-1.3047-1.3047z" fill="#7fc5ec"/><path d="m14.086 14.086c-0.72266 0-1.3047 0.58203-1.3047 1.3047v7.8281c0 0.72266 0.58203 1.3047 1.3047 1.3047h7.8281c0.72266 0 1.3047-0.58203 1.3047-1.3047v-7.8281c0-0.72266-0.58203-1.3047-1.3047-1.3047zm3.2617 1.3047h1.957v1.957h-1.957zm-0.65234 2.6094h2.6094v3.9141h0.65234v1.3047h-3.2617v-1.3047h0.65234v-2.6094h-0.65234z" fill="#fff"/></svg>
